!!!!SEGMENT: pl-stab--6a--001-002_dankowski-adalbert--vespera-de-confes-ex-c-dixit-dominus.krn
!!!cenid: 18xx:3462
!!!COM: Dankowski, Adalbert
!!!COM-rismID:
!!!CDT: ~1760-~1836
!!!CNT: Polish
!!!OPR: Vespera de Confes ex C
!!!OTL: Dixit Dominus
!!!OMV: 002
!!!PDT:
!!!AGN: Sacred; Vespers
!!!SMS-siglum: PL-STAb
!!!SMS-shelfmark: 6a
!!!SMS-shelfwork: 001-002 M
!!!SMS-variant:
!!!SMS-altvar:
!!!NIFC-rismSourceID: 301050559
!!!NIFC-islandoraID: pl-stab:1600
!!!URL-pdf-islandora: https://repozytorium.nifc.pl/islandora/object/pl-stab%3A1600/datastream/PDF/view
!!!URL-scan: https://polish.musicsources.pl/pl/lokalizacje/galeria/rekopisy/4540 @EN{Scan on Polish Music Herritage in Open Access Website} @PL{Skany w portalu Dziedzictwo Muzyki Polskiej w otwartym dostępie}
!!!ONB-nifc: UWAGA: części Vesperae: 1. Domine ad adjuvandum, 2. Dixit Dominus, 3. Confitebor, 4. Beatus vir, 5. Laudate pueri, 6. Laudate Dominus, 7. Magnificat
!!!AIN: 1 alto 1 bass 2 clars 1 organ 1 soprn 1 tenor 2 violn
!!!key: C
**kern	**fba	**dynam	**kern	**dynam	**kern	**dynam	**kern	**text	**kern	**text	**kern	**text	**kern	**text	**kern	**kern
*	*	*	*group3	*	*group3	*	*group2	*	*group2	*	*group2	*	*group2	*	*group1	*group1
*part9	*	*part9	*part8	*part8	*part7	*part7	*part6	*part6	*part5	*part5	*part4	*part4	*part3	*part3	*part2	*part1
*staff9	*	*	*staff8	*	*staff7	*	*staff6	*staff6	*staff5	*staff5	*staff4	*staff4	*staff3	*staff3	*staff2	*staff1
*I"Organo	*	*	*I"Violino Secundo	*	*I"Violino Primo	*	*I"Baſso	*	*I"Tenore	*	*I"Alto	*	*I"Canto	*	*I"Clarino Secundo in C	*I"Clarino Primo in C
*	*	*	*mI"Violino II	*	*mI"Violino I	*	*mI"Basso	*	*	*	*	*	*mI"Soprano	*	*mI"Clarino II in C	*mI"Clarino I in C
*I'org	*	*	*I'vl 2	*	*I'vl 1	*	*I'B	*	*I'T	*	*I'A	*	*I'S	*	*I'clno 2 in C	*I'clno 1 in C
*	*	*	*mI'vl II	*	*mI'vl I	*	*	*	*	*	*	*	*	*	*mI'clno II	*mI'clno I
*Iorgan	*	*	*Ivioln	*	*Ivioln	*	*Ibass	*	*Itenor	*	*Ialto	*	*Isoprn	*	*Iclars	*Iclars
*ICklav	*	*	*ICstr	*	*ICstr	*	*ICvox	*	*ICvox	*	*ICvox	*	*ICvox	*	*ICww	*ICww
*IGcont	*	*	*IGacmp	*	*IGacmp	*	*IGcoro	*	*IGcoro	*	*IGcoro	*	*IGcoro	*	*IGacmp	*IGacmp
*clefF4	*	*	*clefG2	*	*clefG2	*	*clefF4	*	*clefC4	*	*clefC3	*	*clefC1	*	*clefG2	*clefG2
*k[]	*	*	*k[]	*	*k[]	*	*k[]	*	*k[]	*	*k[]	*	*k[]	*	*k[]	*k[]
*C:	*	*	*C:	*	*C:	*	*C:	*	*C:	*	*C:	*	*C:	*	*C:	*C:
*M4/4	*	*	*M4/4	*	*M4/4	*	*M4/4	*	*M4/4	*	*M4/4	*	*M4/4	*	*M4/4	*M4/4
*met(c)	*	*	*met(c)	*	*met(c)	*	*met(c)	*	*met(c)	*	*met(c)	*	*met(c)	*	*met(c)	*met(c)
=1	=1	=1	=1	=1	=1	=1	=1	=1	=1	=1	=1	=1	=1	=1	=1	=1
!LO:TX:a:i:t=Tutti	!	!	!	!	!	!	!	!	!	!	!	!	!	!	!	!
!LO:MO:mod=!LO&colon;TX&colon;a&colon;B&colon;i&colon;t=Allegro Moderato	!	!	!LO:MO:mod=!LO&colon;TX&colon;a&colon;B&colon;i&colon;t=Allegro Moderato	!	!LO:MO:mod=!LO&colon;TX&colon;a&colon;B&colon;i&colon;t=Allegro Moderato	!	!LO:MO:mod=!LO&colon;TX&colon;a&colon;B&colon;i&colon;t=Allegro Moderato	!	!LO:MO:mod=!LO&colon;TX&colon;a&colon;B&colon;i&colon;t=Allegro Moderato	!	!LO:MO:mod=!LO&colon;TX&colon;a&colon;B&colon;i&colon;t=Allegro Moderato	!	!LO:MO:mod=!LO&colon;TX&colon;a&colon;B&colon;i&colon;t=Allegro Moderato	!	!LO:MO:mod=!LO&colon;TX&colon;a&colon;B&colon;i&colon;t=Allegro Moderato	!LO:MO:mod=!LO&colon;TX&colon;a&colon;B&colon;i&colon;t=Allegro Moderato
!LO:TX:a:i:rj:t=Allo Moderato	!	!	!LO:TX:a:i:rj:t=Allo Moderato.	!LO:DY:b:rj:t=f.	!LO:TX:a:i:rj:t=Allo Moderato	!LO:DY:b:rj:t=f.	!LO:TX:a:i:rj:t=Allo.	!	!LO:TX:a:i:rj:t=Allo	!	!LO:TX:a:i:rj:t=Allo Mod.	!	!LO:TX:a:i:rj:t=Allo	!	!LO:TX:a:i:rj:t=Allo mod. in C	!LO:TX:a:i:rj:t=Allo mod.
4C/	.	.	4cc 4e/	f	4cc 4e/	f	8r	.	8r	.	8r	.	8r	.	0r	0r
.	.	.	.	.	.	.	4c\	Di-	4c\	Di-	4cc\	Di-	4cc\	Di-	.	.
4r	.	.	4r	.	4r	.	.	.	.	.	.	.	.	.	.	.
.	.	.	.	.	.	.	8c\	-xit	8c\	-xit	8cc\	-xit	8cc\	-xit	.	.
8r	.	.	8r	.	8r	.	4.c\	Do-	4.c\	Do-	4.cc\	Do-	4.cc\	Do-	.	.
16C/LL	.	.	16e/LL	.	16e/LL	.	.	.	.	.	.	.	.	.	.	.
16D/JJ	.	.	16f/JJ	.	16f/JJ	.	.	.	.	.	.	.	.	.	.	.
16E\LL	.	.	16g/LL	.	16g/LL	.	.	.	.	.	.	.	.	.	.	.
16F\	.	.	16a/	.	16a/	.	.	.	.	.	.	.	.	.	.	.
16E\	.	.	16g/	.	16g/	.	8c\	-mi-	8c\	-mi-	8cc\	-mi-	8cc\	-mi-	.	.
16D\JJ	.	.	16f/JJ	.	16f/JJ	.	.	.	.	.	.	.	.	.	.	.
=2	=2	=2	=2	=2	=2	=2	=2	=2	=2	=2	=2	=2	=2	=2	=2	=2
4C/	.	.	4e/	.	4e/	.	8c\	-nus	8c\	-nus	8cc\	-nus	8cc\	-nus	.	.
.	.	.	.	.	.	.	8c\	Do-	8c\	Do-	8cc\	Do-	8cc\	Do-	.	.
4r	.	.	4r	.	4r	.	8c\	-mi-	8c\	-mi-	8cc\	-mi-	8cc\	-mi-	.	.
.	.	.	.	.	.	.	8c\	-no	8c\	-no	8cc\	-no	8cc\	-no	.	.
*	*	*	*	*	*	*	*2\right	*	*2\right	*	*2\right	*	*2\right	*	*	*
8r	.	.	8r	.	8r	.	2c\	me-	2c\	me-	2cc\	me-	2cc\	me-	.	.
16C/LL	.	.	16e/LL	.	16e/LL	.	.	.	.	.	.	.	.	.	.	.
16D/JJ	.	.	16f/JJ	.	16f/JJ	.	.	.	.	.	.	.	.	.	.	.
16E\LL	.	.	16g/LL	.	16g/LL	.	.	.	.	.	.	.	.	.	.	.
16F\	.	.	16a/	.	16a/	.	.	.	.	.	.	.	.	.	.	.
16E\	.	.	16g/	.	16g/	.	.	.	.	.	.	.	.	.	.	.
16D\JJ	.	.	16f/JJ	.	16f/JJ	.	.	.	.	.	.	.	.	.	.	.
=3	=3	=3	=3	=3	=3	=3	=3	=3	=3	=3	=3	=3	=3	=3	=3	=3
4C/	.	.	4e/	.	4e/	.	8c\	-o	8c\	-o	8cc\	-o	8cc\	-o	1r	1r
.	.	.	.	.	.	.	8c\	Se-	8c\	Se-	8cc\	Se-	8cc\	Se-	.	.
4r	.	.	4r	.	4r	.	8B\	-de	8B\	-de	8b\	-de	8b\	-de	.	.
.	.	.	.	.	.	.	8A\	a	8A\	a	8a\	a	8a\	a	.	.
2r	.	.	2r	.	2r	.	8G\	dex-	8G/	dex-	8g\	dex-	8g\	dex-	.	.
.	.	.	.	.	.	.	16F\LL	-tris	8G/	-tris	16f\LL	-tris	8b\	-tris	.	.
.	.	.	.	.	.	.	16E\JJ	.	.	.	16e\JJ	.	.	.	.	.
.	.	.	.	.	.	.	8F\L	me-	8A/L	me-	4d\	me-	8cc\L	me-	.	.
.	.	.	.	.	.	.	8G\J	.	8G/J	.	.	.	8b\J	.	.	.
!	!	!	!	!	!	!	!LO:LB:g=original	!	!LO:LB:g=original	!	!LO:LB:g=original	!	!	!	!	!
=4	=4	=4	=4	=4	=4	=4	=4	=4	=4	=4	=4	=4	=4	=4	=4	=4
*	*	*	*	*	*	*	*	*	*	*	*	*	*	*	*	*2\right
8c\L	.	.	16e/LL	.	(8.cc\L	.	8C/	is	8G/	is	8e\	is	8cc\	-is	2e/	2cc\
.	.	.	16g/	.	.	.	.	.	.	.	.	.	.	.	.	.
8c\	.	.	16e/	.	.	.	16c\	Do-	16c\	Do-	16g\	Do-	16ee\	Do-	.	.
.	.	.	16g/JJ	.	16ee\Jk)	.	16c\	-nec	16c\	-nec	16g\	-nec	16ee\	-nec	.	.
8c\	.	.	16e/LL	.	8gg|\L	.	8c\	po-	8c\	po-	8g\	po-	8ee\	po-	.	.
.	.	.	16g/	.	.	.	.	.	.	.	.	.	.	.	.	.
8c\J	.	.	16e/	.	8gg|\J	.	8c\	-nam	8c\	-nam	8g\	-nam	8ee\	-nam	.	.
.	.	.	16g/JJ	.	.	.	.	.	.	.	.	.	.	.	.	.
*tremolo	*	*	*	*	*	*	*	*	*	*	*	*	*	*	*	*
*2\right	*	*	*	*	*	*	*	*	*	*	*	*	*	*	*	*
!	!	!	!	!	!	!	!	!	!	!	!	!	!LO:LB:g=original	!	!	!
8B\L	6 5	.	16f/LL	.	(8.gg\L	.	8B\	i-	8d\	i-	8g\	i-	8dd\	i-	2g/	2dd\
.	.	.	16g/	.	.	.	.	.	.	.	.	.	.	.	.	.
8B\	.	.	16f/	.	.	.	8B\	-ni-	8d\	-ni-	8g\	-ni-	8dd\	-ni-	.	.
.	.	.	16g/JJ	.	16ff\Jk)	.	.	.	.	.	.	.	.	.	.	.
!	!	!	!LO:LB:g=original	!	!	!	!	!	!	!	!	!	!	!	!	!
8B\	.	.	16d/LL	.	(16dd\LL	.	8B\	-mi-	8d\	-mi-	8g\	-mi-	8dd\	-mi-	.	.
.	.	.	16f/	.	16ee\)	.	.	.	.	.	.	.	.	.	.	.
8B\J	.	.	16d/	.	(16ff\	.	8B\	-cos	8d\	-cos	8g\	-cos	8dd\	-cos	.	.
.	.	.	16f/JJ	.	16gg\JJ)	.	.	.	.	.	.	.	.	.	.	.
*Xtremolo	*	*	*	*	*	*	*	*	*	*	*	*	*	*	*	*
!	!	!	!	!	!LO:LB:g=original	!	!	!	!	!	!	!	!	!	!	!
=5	=5	=5	=5	=5	=5	=5	=5	=5	=5	=5	=5	=5	=5	=5	=5	=5
8c\L	.	.	16e/LL	.	8ee|\L	.	4c\	tu-	4c\	tu-	4g\	tu-	4ee\	tu-	2e/	2cc\
.	.	.	16g/	.	.	.	.	.	.	.	.	.	.	.	.	.
8c\	.	.	16e/	.	(32cc\LL	.	.	.	.	.	.	.	.	.	.	.
.	.	.	.	.	32dd\	.	.	.	.	.	.	.	.	.	.	.
.	.	.	16g/JJ	.	32ee\	.	.	.	.	.	.	.	.	.	.	.
.	.	.	.	.	32ff\JJJ)	.	.	.	.	.	.	.	.	.	.	.
8c\	.	.	16e/LL	.	8gg|\L	.	8c\	-os	8c\	-os	8g\	-os	8ee\	-os	.	.
.	.	.	16g/	.	.	.	.	.	.	.	.	.	.	.	.	.
8c\J	.	.	16e/	.	8gg|\J	.	8c\	Sca-	8c\	Sca-	8g\	Sca-	8ee\	Sca-	.	.
.	.	.	16g/JJ	.	.	.	.	.	.	.	.	.	.	.	.	.
!LO:LB:g=original	!	!	!	!	!	!	!	!	!	!	!	!	!	!	!	!
8B\L	6_ 5_	.	16f/LL	.	(8.gg\L	.	4B\	-bel-	4d\	-be-	4g\	-be-	4dd\	-be-	2g/	2dd\
.	.	.	16g/	.	.	.	.	.	.	.	.	.	.	.	.	.
8B\	.	.	16f/	.	.	.	.	.	.	.	.	.	.	.	.	.
.	.	.	16g/JJ	.	16ff\Jk)	.	.	.	.	.	.	.	.	.	.	.
8B\	.	.	16d/LL	.	(16dd\LL	.	8B\	-lum	8d\	-lum	8g\	-lum	8dd\	-lum	.	.
.	.	.	16f/	.	16ee\)	.	.	.	.	.	.	.	.	.	.	.
*	*	*	*	*	*	*	*	*	*	*ij	*	*	*	*	*	*
!	!	!	!	!	!	!	!	!	!	!	!	!	!	!LO:MO:mod=Sca-	!	!
8B\J	.	.	16d/	.	(16ff\	.	8B\	Sca-	8d\	Sca-	8g\	Sca-	8dd\	pe-	.	.
.	X X	.	16f/JJ	.	16gg\JJ)	.	.	.	.	.	.	.	.	.	.	.
=6	=6	=6	=6	=6	=6	=6	=6	=6	=6	=6	=6	=6	=6	=6	=6	=6
*tremolo	*	*	*	*	*	*	*	*	*	*	*	*	*	*	*2\right	*
!	!	!	!	!	!	!	!	!	!	!	!	!	!	!LO:MO:mod=-be-	!	!
8c\L	.	.	16e/LL	.	8.ee\L	.	4c\	-bel-	4c\	-be-	4g\	-be-	4ee\	-dum	2cc\	2ee\
.	.	.	16g/	.	.	.	.	.	.	.	.	.	.	.	.	.
8c\	.	.	16e/	.	.	.	.	.	.	.	.	.	.	.	.	.
.	.	.	16g/JJ	.	(32cc\LL	.	.	.	.	.	.	.	.	.	.	.
.	.	.	.	.	32dd\JJJ)	.	.	.	.	.	.	.	.	.	.	.
!	!	!	!	!	!	!	!	!	!	!	!	!	!	!LO:MO:mod=-lum	!	!
8c\	.	.	16e/LL	.	8ee|\L	.	4c\	-lum	4c\	-lum	4g\	-lum	4ee\	tu-	.	.
*	*	*	*	*	*	*	*	*	*	*Xij	*	*	*	*	*	*
.	.	.	16g/	.	.	.	.	.	.	.	.	.	.	.	.	.
8c\J	.	.	16e/	.	8ee|\J	.	.	.	.	.	.	.	.	.	.	.
.	.	.	16g/JJ	.	.	.	.	.	.	.	.	.	.	.	.	.
!	!	!	!	!	!	!	!	!	!	!	!	!	!	!LO:MO:mod=pe-	!	!
8A\L	.	.	16e/LL	.	8.ee\L	.	4A\	pe-	4c\	pe-	4a\	pe-	4ee\	-o-	2cc\	2ee\
.	.	.	16cc/	.	.	.	.	.	.	.	.	.	.	.	.	.
8A\	.	.	16e/	.	.	.	.	.	.	.	.	.	.	.	.	.
.	.	.	16cc/JJ	.	(32cc\LL	.	.	.	.	.	.	.	.	.	.	.
.	.	.	.	.	32dd\JJJ)	.	.	.	.	.	.	.	.	.	.	.
!	!	!	!	!	!	!	!	!	!	!	!	!	!	!LO:MO:mod=-dum	!	!
8A\	.	.	16e/LL	.	8ee\L	.	4A\	-dum	4c\	-dum	4a\	-dum	4ee\	-rum	.	.
.	.	.	16cc/	.	.	.	.	.	.	.	.	.	.	.	.	.
8A\J	.	.	16e/	.	8ee\J	.	.	.	.	.	.	.	.	.	.	.
.	.	.	16cc/JJ	.	.	.	.	.	.	.	.	.	.	.	.	.
!	!	!	!	!	!	!	!	!	!	!	!LO:LB:g=original	!	!	!	!	!
=7	=7	=7	=7	=7	=7	=7	=7	=7	=7	=7	=7	=7	=7	=7	=7	=7
*	*	*	*	*	*	*	*	*	*	*ij	*	*ij	*	*	*	*
!	!	!	!	!	!	!	!	!LO:MO:mod=pe-	!	!	!	!	!	!	!	!
8F#X\L	6 5	.	16a\LL	.	8.ee\L	.	4F#X\	tu-	4c\	pe-	4a\	pe-	4ee\	pe-	2cc\	2ee\
.	.	.	16cc\	.	.	.	.	.	.	.	.	.	.	.	.	.
8F#\	.	.	16a\	.	.	.	.	.	.	.	.	.	.	.	.	.
.	.	.	16cc\JJ	.	(32cc\LL	.	.	.	.	.	.	.	.	.	.	.
.	.	.	.	.	32dd\JJJ)	.	.	.	.	.	.	.	.	.	.	.
!	!	!	!	!	!	!	!LO:LB:g=original	!	!	!	!	!	!	!	!	!
!	!	!	!	!	!	!	!	!LO:MO:null:mod=-dum	!	!	!	!	!	!	!	!
8F#\	.	.	16a\LL	.	8ee|\L	.	8F#X\	.	8c\	-dum	8a\	-dum	8ee\	-dum	.	.
*	*	*	*	*	*	*	*	*	*	*Xij	*	*Xij	*	*	*	*
.	.	.	16cc\	.	.	.	.	.	.	.	.	.	.	.	.	.
!	!	!	!	!	!	!	!	!	!LO:LB:g=original	!	!	!	!	!	!	!
8F#\J	.	.	16a\	.	8ee|\J	.	8F#\	-tu-	8c\	tu-	8a\	tu-	8ee\	tu-	.	.
.	.	.	16cc\JJ	.	.	.	.	.	.	.	.	.	.	.	.	.
*Xtremolo	*	*	*	*	*	*	*	*	*	*	*	*	*	*	*	*
!LO:TX:t=P:problem=mixed beam	!	!	!	!	!	!	!	!	!	!	!	!	!	!	!	!
8G\L	4	.	8cc\L	.	8ee\L	.	8G\	-o-	8c\	-o-	8g\	-o-	8ee\	-o-	8cc/L	8ee\L
8GG/	3	.	8b\	.	8dd\J	.	8G\	-rum	8B\	-rum	8g\	-rum	8dd\	-rum	8g/	8cc\
8G\	.	.	8b\	.	16gg\LL	.	8G\	Vir-	8d\	Vir-	8g\	Vir-	8dd\	Vir-	8g/	8dd\
.	.	.	.	.	16aa\	.	.	.	.	.	.	.	.	.	.	.
8B\J	6	.	8dd\J	.	16gg\	.	8B\	-gam	8d\	-gam	8g\	-gam	8dd\	-gam	8g/J	8ee\J
.	.	.	.	.	16ff\JJ	.	.	.	.	.	.	.	.	.	.	.
!	!	!	!LO:LB:g=original	!	!	!	!	!	!	!	!	!	!LO:LB:g=original	!	!	!
=8	=8	=8	=8	=8	=8	=8	=8	=8	=8	=8	=8	=8	=8	=8	=8	=8
*tremolo	*	*	*tremolo	*	*	*	*	*	*	*	*	*	*	*	*	*
8c\L	.	.	8g/L	.	8ee\L	.	4c\	Vir-	4c\	Vir-	4g\	Vir-	4ee\	Vir-	2cc\	2ee\
8c\	.	.	8g/	.	16ee\L	.	.	.	.	.	.	.	.	.	.	.
.	.	.	.	.	16dd\JJ	.	.	.	.	.	.	.	.	.	.	.
!	!	!	!	!	!LO:LB:g=original	!	!	!	!	!	!	!	!	!	!	!
8c\	.	.	8g/	.	16ee\LL	.	8c\	-tu-	8c\	-tu-	8g\	-tu-	8ee\	-tu-	.	.
.	.	.	.	.	16ff\	.	.	.	.	.	.	.	.	.	.	.
8c\J	.	.	8g/J	.	16gg\	.	8c\	-tis	8c\	-tis	8g\	-tis	8ee\	-tis	.	.
.	.	.	.	.	16ee\JJ	.	.	.	.	.	.	.	.	.	.	.
*	*	*	*Xtremolo	*	*	*	*	*	*	*	*	*	*	*	*	*
8B\L	6	.	8g/L	.	16ee\LL	.	4B\	tu-	4d\	tu-	4f\	tu-	4dd\	tu-	2g/	2dd\
.	.	.	.	.	16dd\J	.	.	.	.	.	.	.	.	.	.	.
8B\	.	.	8g/	.	(8.dd\J	.	.	.	.	.	.	.	.	.	.	.
8B\	.	.	8b/	.	.	.	8B\	-e	8d\	-e	8b\	-e	8gg\	-e	.	.
.	.	.	.	.	16ee\LL)	.	.	.	.	.	.	.	.	.	.	.
!	!	!	!	!	!	!	!	!	!	!LO:MO:mod=ae-	!	!	!	!LO:MO:mod=ae-	!	!
8B\J	.	.	8dd/J	.	(16ff#X\	.	8B\	ae-	8d\	e-	8b\	ae-	8gg\	e-	.	.
.	.	.	.	.	16gg\JJ)	.	.	.	.	.	.	.	.	.	.	.
=9	=9	=9	=9	=9	=9	=9	=9	=9	=9	=9	=9	=9	=9	=9	=9	=9
*	*	*	*tremolo	*	*	*	*	*	*	*	*	*	*	*	*	*
*	*	*	*2\right	*	*	*	*	*	*	*	*	*	*	*	*	*
8A\L	6\ 3	.	8cc\L	.	16gg\LL	.	4A\	-mit-	4d\	-mit-	4cc\	-mit-	4ff#X\	-mit-	2dd\	2dd\
.	.	.	.	.	16ff#X\J	.	.	.	.	.	.	.	.	.	.	.
8A\	.	.	8cc\	.	(8.ff#\J	.	.	.	.	.	.	.	.	.	.	.
!	!	!	!	!	!	!	!	!LO:MO:mod=-et	!	!LO:MO:mod=-et	!	!	!	!LO:MO:mod=-et	!	!
8A\	.	.	8cc\	.	.	.	4A\	-tet	4d\	-tet	4cc\	-et	4ff#\	-te	.	.
.	.	.	.	.	16gg\LL)	.	.	.	.	.	.	.	.	.	.	.
8A\J	.	.	8cc\J	.	(16aa\	.	.	.	.	.	.	.	.	.	.	.
.	.	.	.	.	16ff#\JJ)	.	.	.	.	.	.	.	.	.	.	.
*	*	*	*Xtremolo	*	*	*	*	*	*	*	*	*	*	*	*	*
8G\L	.	.	8b\L	.	16aa\LL	.	8.G\	Do-	8.d\	Do-	8.b\	Do-	8.gg\	Do-	2g/	2dd\
.	.	.	.	.	16gg\	.	.	.	.	.	.	.	.	.	.	.
8G\	.	.	16b\L	.	16gg\	.	.	.	.	.	.	.	.	.	.	.
.	.	.	16a\JJ	.	16ff#\JJ	.	16G\	-mi-	16d\	-mi-	16b\	-mi-	16gg\	-mi-	.	.
8G\	.	.	16b\LL	.	16gg\LL	.	8G\	-nus	8d\	-nus	8b\	-nus	8gg\	-nus	.	.
.	.	.	16cc\	.	16aa\	.	.	.	.	.	.	.	.	.	.	.
8G\J	.	.	16dd\	.	16bb\	.	8G\	ex	8d\	ex	8b\	ex	8gg\	ex	.	.
.	.	.	16b\JJ	.	16gg\JJ	.	.	.	.	.	.	.	.	.	.	.
*Xtremolo	*	*	*	*	*	*	*	*	*	*	*	*	*	*	*	*
!	!	!	!	!	!	!	!	!	!	!	!LO:LB:g=original	!	!	!	!LO:LB:g=original	!LO:LB:g=original
=10	=10	=10	=10	=10	=10	=10	=10	=10	=10	=10	=10	=10	=10	=10	=10	=10
!LO:TX:t=P:problem=mixed beam	!	!	!	!	!	!	!	!	!	!	!	!	!	!	!	!
8d\L	4	.	8b/L	.	8gg\L	.	8d\	Si-	8d\	Si-	8b\	Si-	8gg\	Si-	4dd\	4dd\
8D/	#_	.	8a/	.	8ff#X\J	.	8D/	-on	8d\	-on	8a\	-on	8ff#X\	-on	.	.
!	!	!	!	!	!	!	!LO:LB:g=original	!	!LO:LB:g=original	!	!	!	!	!	!	!
8d\	.	.	8a/	.	16ff#\LL	.	8d\	do-	8d\	do-	8a\	Do-	8ff#\	do-	4dd\	4dd\
.	X	.	.	.	16dd\	.	.	.	.	.	.	.	.	.	.	.
8c\J	.	.	8a/J	.	16ee\	.	8c\	-mi-	8d\	-mi-	8a\	-mi-	8ff#\	-mi-	.	.
.	.	.	.	.	16ff#\JJ	.	.	.	.	.	.	.	.	.	.	.
8B\L	6	.	8b\L	.	16gg\LL	.	8B\	-na-	8d\	-na-	8b\	-na-	8gg\	-na-	4g/	4dd\
.	.	.	.	.	16dd\	.	.	.	.	.	.	.	.	.	.	.
8G\	.	.	8dd\	.	16gg\	.	16G\	-re	16d\	-re	16b\	-re	16gg\	-re	.	.
.	.	.	.	.	16bb\JJ	.	16G\	in	16d\	in	16b\	in	16gg\	in	.	.
8F#X\	6 5	.	8dd\	.	16aa\LL	.	8F#X\	me-	8d\	me-	8cc\	me-	8aa\	me-	8dd\L	8dd\L
.	.	.	.	.	16dd\	.	.	.	.	.	.	.	.	.	.	.
8D\J	.	.	8cc\J	.	16aa\	.	8D\	-di-	8d\	-di-	8cc\	-di-	8aa\	-di-	8dd\J	8dd\J
.	.	.	.	.	16ccc\JJ	.	.	.	.	.	.	.	.	.	.	.
!LO:LB:g=original	!	!	!	!	!	!	!	!	!	!	!	!	!LO:LB:g=original	!	!	!
=11	=11	=11	=11	=11	=11	=11	=11	=11	=11	=11	=11	=11	=11	=11	=11	=11
8.G\L	.	.	(8.b\L	.	16bb\LL	.	8.G\	-o	8d\	-o	8b\	-o	8gg\	-o	4dd\	2dd\
.	.	.	.	.	16aa\	.	.	.	.	.	.	.	.	.	.	.
.	.	.	.	.	16gg\	.	.	.	8d\	I-	8cc\	i-	16gg\LL	I-	.	.
16A\K	6\	.	16cc\K)	.	16ff#X\JJ	.	16A\	i-	.	.	.	.	16ff#X\JJ	.	.	.
!	!	!	!	!	!LO:LB:g=original	!	!	!	!	!	!	!	!	!	!	!
8B\	6	.	8dd|\	.	16gg\LL	.	8B\	-ni-	8d\	-ni-	8dd\	-ni-	8gg\	-ni-	4g/	.
.	.	.	.	.	16aa\	.	.	.	.	.	.	.	.	.	.	.
8B\J	.	.	8dd|\J	.	16bb\	.	8B\	-mi-	8d\	-mi-	8dd\	-ni-	8gg\	-mi-	.	.
.	.	.	.	.	16gg\JJ	.	.	.	.	.	.	.	.	.	.	.
!LO:TX:t=P:problem=mixed beam	!	!	!	!	!	!	!	!	!	!	!LO:N:vis=8.	!	!	!	!	!
8c\L	6_	.	8.ee\L	.	16aa\LL	.	8c\	-co-	8e\	-co-	8cc\	-co-	8ee\	-co-	4cc\	4dd\
.	.	.	.	.	16ccc\	.	.	.	.	.	.	.	.	.	.	.
8c\	.	.	.	.	16ee\	.	16c\	-rum	16e\	-rum	16cc\	-rum	16ee\	-rum	.	.
.	.	.	16cc\Jk	.	16aa\JJ	.	16c\	tu-	16e\	tu-	16a\	tu-	16cc\	tu-	.	.
!	!	!	!	!	!	!	!LO:TX:t=P:problem=mixed beam	!	!	!	!	!	!	!	!	!
8d\	4	.	16cc\LL	.	16aa\LL	.	8d\L	-o-	4d\	-o-	8g\L	-o-	8b\L	-o-	8dd\L	8dd\L
.	.	.	16b\	.	16gg\	.	.	.	.	.	.	.	.	.	.	.
8D/J	#	.	16b\	.	16gg\	.	8D/J	.	.	.	8f#X\J	.	8a\J	.	8dd\J	8dd\J
.	.	.	16a\JJ	.	16ff#X\JJ	.	.	.	.	.	.	.	.	.	.	.
!	!	!	!	!	!	!	!	!	!	!	!LO:LB:g=original	!	!	!	!	!
=12	=12	=12	=12	=12	=12	=12	=12	=12	=12	=12	=12	=12	=12	=12	=12	=12
!LO:TX:a:i:t=Solo	!	!	!	!	!	!	!	!	!	!	!	!	!	!	!	!
4G\	.	.	16b\LL	.	16gg\LL	.	4G\	-rum	4d\	-rum	4g\	-rum	4b\	-rum	4g/	4b\
.	.	.	(32a\L	.	(32ff#X\L	.	.	.	.	.	.	.	.	.	.	.
.	.	.	32b\JJJ)	.	32gg\JJJ)	.	.	.	.	.	.	.	.	.	.	.
.	.	.	16gg|\LL	.	16bb|\LL	.	.	.	.	.	.	.	.	.	.	.
.	.	.	16ff#X|\JJ	.	16aa|\JJ	.	.	.	.	.	.	.	.	.	.	.
!	!	!	!LO:LB:g=original	!	!	!	!	!	!	!	!	!	!	!	!	!
8r	.	.	16ee\LL	.	16gg|\LL	.	4r	.	4r	.	4r	.	4r	.	8r	8r
.	.	.	16dd\	.	16ff#|\	.	.	.	.	.	.	.	.	.	.	.
8G\	.	.	16cc\	.	16ee|\	.	.	.	.	.	.	.	.	.	8g/	8dd\
.	.	.	16b\JJ	.	16dd|\JJ	.	.	.	.	.	.	.	.	.	.	.
!LO:TX:t=P:problem=mixed beam	!	!	!	!	!	!	!	!	!	!	!	!	!	!	!	!
8c\L	6_	.	(16b\LL	.	(16dd#X\LL	.	2r	.	2r	.	2r	.	2r	.	4cc\	4ee\
.	.	.	16cc\)	.	16ee\)	.	.	.	.	.	.	.	.	.	.	.
8c\	.	.	(16cc\	.	(16ee\	.	.	.	.	.	.	.	.	.	.	.
.	.	.	16a\JJ)	.	16cc\JJ)	.	.	.	.	.	.	.	.	.	.	.
8d\	4	.	(16a/LL	.	(16cc\LL	.	.	.	.	.	.	.	.	.	8dd\L	8dd\L
.	.	.	16g/)	.	16b\)	.	.	.	.	.	.	.	.	.	.	.
8D/J	#	.	(16g/	.	(16b\	.	.	.	.	.	.	.	.	.	8dd\J	8dd\J
.	.	.	16f#X/JJ)	.	16a\JJ)	.	.	.	.	.	.	.	.	.	.	.
=13	=13	=13	=13	=13	=13	=13	=13	=13	=13	=13	=13	=13	=13	=13	=13	=13
!	!	!	!	!	!	!	!LO:MO:null:mod=!LO&colon;TX&colon;a&colon;i&colon;t=Solo	!	!	!	!	!	!	!	!	!
!	!	!LO:DY:a:t=p.	!	!LO:DY:a:t=p.	!	!LO:DY:b:rj:t=p.	!	!	!	!	!	!	!	!	!	!
4G\	.	p	4g/	p	4b\	p	8r	.	00r	.	00r	.	00r	.	4g/	4dd\
.	.	.	.	.	.	.	8G\	Ju-	.	.	.	.	.	.	.	.
8r	.	.	8r	.	8r	.	8B\	-ra-	.	.	.	.	.	.	4r	4r
!	!	!	!	!	!	!	!LO:LB:g=original	!	!	!	!	!	!	!	!	!
8G\	.	.	8d/	.	8b\	.	8d\	-vit	.	.	.	.	.	.	.	.
8d\L	4	.	4.d/	.	8.dd\L	.	8.B\	Do-	.	.	.	.	.	.	2r	2r
8D\	#	.	.	.	.	.	.	.	.	.	.	.	.	.	.	.
.	.	.	.	.	16cc\K	.	16A\	-mi-	.	.	.	.	.	.	.	.
8G\	.	.	.	.	8b\	.	8G\	-nus	.	.	.	.	.	.	.	.
8G\J	.	.	8b\	.	8dd\J	.	16B\	et	.	.	.	.	.	.	.	.
.	.	.	.	.	.	.	16B\	non	.	.	.	.	.	.	.	.
=14	=14	=14	=14	=14	=14	=14	=14	=14	=14	=14	=14	=14	=14	=14	=14	=14
!LO:TX:t=P:problem=mixed beam	!	!	!	!	!	!	!	!	!	!	!	!	!	!	!	!
8c\L	6_	.	8.cc\L	.	8.ee\L	.	8c\	pe-	.	.	.	.	.	.	00r	00r
8c\	.	.	.	.	.	.	16B\LL	-ni-	.	.	.	.	.	.	.	.
.	.	.	16a\Jk	.	16cc\Jk	.	16c\JJ	.	.	.	.	.	.	.	.	.
8d\	4	.	16a/LL	.	16cc\LL	.	8d\	-te-	.	.	.	.	.	.	.	.
.	.	.	16g/	.	16b\	.	.	.	.	.	.	.	.	.	.	.
8D/J	#	.	16g/	.	16b\	.	8D/	-bit	.	.	.	.	.	.	.	.
.	.	.	16f#X/JJ	.	16a\JJ	.	.	.	.	.	.	.	.	.	.	.
!	!	!	!	!	!LO:LB:g=original	!	!	!	!	!	!	!	!	!	!	!
4G\	.	.	8g/L	.	8b\L	.	8G\	e-	.	.	.	.	.	.	.	.
.	.	.	(32g/LL	.	(32b\LL	.	8G\	-um	.	.	.	.	.	.	.	.
.	.	.	32a/	.	32cc\	.	.	.	.	.	.	.	.	.	.	.
.	.	.	32b/	.	32dd\	.	.	.	.	.	.	.	.	.	.	.
.	.	.	32a/JJJ)	.	32cc\JJJ)	.	.	.	.	.	.	.	.	.	.	.
8r	.	.	8g/L	.	8b\L	.	8r	.	.	.	.	.	.	.	.	.
8G\	.	.	8g/J	.	8b\J	.	8G\	tu-	.	.	.	.	.	.	.	.
!LO:LB:g=original	!	!	!	!	!	!	!	!	!	!	!	!	!	!	!	!
=15	=15	=15	=15	=15	=15	=15	=15	=15	=15	=15	=15	=15	=15	=15	=15	=15
4D\	#	.	4f#X/	.	2a/	.	8F#X\	-es	.	.	.	.	.	.	.	.
.	.	.	.	.	.	.	8G\	sa-	.	.	.	.	.	.	.	.
4F#X\	6 5	.	4d/	.	.	.	8d\	-cer-	.	.	.	.	.	.	.	.
.	.	.	.	.	.	.	8c\	-dos	.	.	.	.	.	.	.	.
8G\L	.	.	2d/	.	4b/	.	8B\	in	.	.	.	.	.	.	.	.
!	!	!	!	!	!	!	!LO:LB:g=original	!	!	!	!	!	!	!	!	!
8B\	6	.	.	.	.	.	16A\LL	ae-	.	.	.	.	.	.	.	.
.	.	.	.	.	.	.	16G\JJ	.	.	.	.	.	.	.	.	.
8d\	Z#	.	.	.	4a/	.	8.F#\L	-ter-	.	.	.	.	.	.	.	.
8c\J	.	.	.	.	.	.	.	.	.	.	.	.	.	.	.	.
.	.	.	.	.	.	.	32E\LL	.	.	.	.	.	.	.	.	.
.	.	.	.	.	.	.	32F#\JJJ	.	.	.	.	.	.	.	.	.
!	!	!	!LO:LB:g=original	!	!	!	!	!	!	!	!	!	!	!	!	!
=16	=16	=16	=16	=16	=16	=16	=16	=16	=16	=16	=16	=16	=16	=16	=16	=16
4B\	.	.	2d/	.	4b\	.	8G\	-num	.	.	.	.	.	.	.	.
.	.	.	.	.	.	.	8G\	ſe-	.	.	.	.	.	.	.	.
.	.	.	.	.	16qqdd/	.	.	.	.	.	.	.	.	.	.	.
4F#X\	6 5	.	.	.	8cc\L	.	16B\LL	-cun-	.	.	.	.	.	.	.	.
.	.	.	.	.	.	.	16A\JJ	.	.	.	.	.	.	.	.	.
.	.	.	.	.	16b\L	.	16G\LL	-dum	.	.	.	.	.	.	.	.
.	.	.	.	.	16cc\JJ	.	16A\JJ	.	.	.	.	.	.	.	.	.
4G\	.	.	4d/	.	4b\	.	16B\LL	or-	.	.	.	.	.	.	.	.
.	.	.	.	.	.	.	16c\JJ	.	.	.	.	.	.	.	.	.
.	.	.	.	.	.	.	16d\LL	-di-	.	.	.	.	.	.	.	.
.	.	.	.	.	.	.	16B\JJ	.	.	.	.	.	.	.	.	.
8r	.	.	8r	.	8r	.	8G\	-nem	.	.	.	.	.	.	.	.
8B\	6	.	8g/	.	8dd\	.	8G\	mel-	.	.	.	.	.	.	.	.
=17	=17	=17	=17	=17	=17	=17	=17	=17	=17	=17	=17	=17	=17	=17	=17	=17
!	!	!	!	!	!	!	!	!	!	!	!	!	!LO:MO:mod=!	!	!	!
!	!	!	!	!	!	!	!	!	!	!	!	!	!LO:TX:a:t=Solo	!	!	!
4c\	6	.	4a/	.	4cc\	.	8c\L	-hi-	00r	.	2r	.	2r	.	.	.
.	.	.	.	.	.	.	16B\L	.	.	.	.	.	.	.	.	.
.	.	.	.	.	.	.	16c\JJ	.	.	.	.	.	.	.	.	.
8d\L	4	.	8g/L	.	8b\L	.	8d\	-ſe-	.	.	.	.	.	.	.	.
8D\J	#	.	8f#X/J	.	8a\J	.	8D\	.	.	.	.	.	.	.	.	.
!LO:TX:t=P:problem=mixed beam	!	!	!	!	!	!	!	!	!	!	!	!	!	!	!	!
!	!	!	!	!	!	!	!	!	!	!	!LO:MO:null:mod=!LO&colon;TX&colon;a&colon;i&colon;t=Solo	!	!LO:MO:null:mod=!LO&colon;TX&colon;a&colon;i&colon;t=Solo	!	!	!
!	!	!	!	!	!	!	!	!	!	!	!null	!	!null	!	!	!
8G\L	.	.	4g/	.	4b\	.	4G\	-dech	.	.	8.g\	Do-	8.b\	Do-	.	.
!	!	!	!	!	!	!	!	!	!	!	!LO:MO:mod=!	!	!	!	!	!
!	!	!	!	!	!	!	!	!	!	!	!LO:TX:a:i:t=Solo	!	!	!	!	!
8GG/J	.	.	.	.	.	.	.	.	.	.	.	.	.	.	.	.
.	.	.	.	.	.	.	.	.	.	.	16g\	-mi-	16b\	-mi-	.	.
4r	.	.	16g/LL	.	16b\LL	.	4r	.	.	.	16g\LL	-nus	16b\LL	-nus	.	.
.	.	.	16f#X/	.	16a\	.	.	.	.	.	16f#X\JJ	.	16a\JJ	.	.	.
.	.	.	16g/	.	16b\	.	.	.	.	.	16g\LL	a	16b\LL	a	.	.
.	.	.	16a/JJ	.	16cc\JJ	.	.	.	.	.	16a\JJ	.	16cc\JJ	.	.	.
=18	=18	=18	=18	=18	=18	=18	=18	=18	=18	=18	=18	=18	=18	=18	=18	=18
!	!	!	!	!	!	!	!LO:TX:a:t=3	!	!	!	!	!	!	!	!	!
8r	.	.	8b/L	.	8dd\L	.	0r	.	.	.	8b\	dex-	8dd\	dex-	0r	0r
!LO:TX:t=P:problem=mixed beam	!	!	!	!	!	!	!	!	!	!	!	!	!	!	!	!
8G\L	#7r	.	16cc/L	.	16ee\L	.	.	.	.	.	16cc\LL	tirs	16ee\LL	tirs	.	.
.	.	.	16b/JJ	.	16dd\JJ	.	.	.	.	.	16b\JJ	.	16dd\JJ	.	.	.
.	.	.	8qqb/	.	8qqdd/	.	.	.	.	.	8qqb/	.	8qqdd/	.	.	.
8d\	.	.	4a/	.	4cc\	.	.	.	.	.	4a\	tu-	4cc\	tu-	.	.
8D/J	.	.	.	.	.	.	.	.	.	.	.	.	.	.	.	.
!LO:TX:t=P:problem=mixed beam	!	!	!	!	!	!	!	!	!	!	!	!	!LO:LB:g=original	!	!	!
8G\L	.	.	8g/L	.	8b\L	.	.	.	.	.	8g\	-is	8b\	-is	.	.
8GG/J	.	.	8b/J	.	8dd\J	.	.	.	.	.	8b\	Con-	8dd\	Con-	.	.
8r	.	.	8b/L	.	8dd\L	.	.	.	.	.	8b\L	-fre-	8dd\L	-fre-	.	.
8G\	.	.	16cc/L	.	16ee\L	.	.	.	.	.	16cc\L	.	16ee\L	.	.	.
.	.	.	16b/JJ	.	16dd\JJ	.	.	.	.	.	16b\JJ	.	16dd\JJ	.	.	.
!	!	!	!	!	!LO:LB:g=original	!	!	!	!	!	!	!	!	!	!	!
=19	=19	=19	=19	=19	=19	=19	=19	=19	=19	=19	=19	=19	=19	=19	=19	=19
.	.	.	.	.	8qqdd/	.	.	.	.	.	.	.	.	.	.	.
4D\	7 #	.	8a/L	.	8cc\L	.	.	.	.	.	8a\	-git	8cc\	-git	.	.
.	.	.	16a/L	.	16cc\L	.	.	.	.	.	16a\LL	in	8cc\	in	.	.
.	.	.	16g/JJ	.	16b\JJ	.	.	.	.	.	16g\JJ	.	.	.	.	.
!	!	!	!	!	!	!	!	!	!	!	!LO:LB:g=original	!	!	!	!	!
4F#X\	6 5	.	8a/L	.	8cc\L	.	.	.	.	.	8a\	di-	8cc\	di-	.	.
.	.	.	8a/J	.	16dd\L	.	.	.	.	.	8a\	-e	16dd\LL	-e	.	.
.	.	.	.	.	16cc\JJ	.	.	.	.	.	.	.	16cc\JJ	.	.	.
4G\	.	.	16g/LL	.	16b\LL	.	.	.	.	.	16g\LL	i-	16b\LL	i-	.	.
.	.	.	16f#X/	.	16a\	.	.	.	.	.	16f#X\	.	16a\	.	.	.
.	.	.	16g/	.	16b\	.	.	.	.	.	16g\	.	16b\	.	.	.
.	.	.	16a/JJ	.	16cc\JJ	.	.	.	.	.	16a\JJ	.	16cc\JJ	.	.	.
8r	.	.	8b\L	.	16dd\LL	.	.	.	.	.	8b\	.	16dd\LL	.	.	.
.	.	.	.	.	16ee\	.	.	.	.	.	.	.	16ee\JJ	.	.	.
8B\	6	.	8b\J	.	16ff#X\	.	.	.	.	.	8b\	-re	16ff#X\LL	-re	.	.
.	.	.	.	.	16gg\JJ	.	.	.	.	.	.	.	16gg\JJ	.	.	.
!LO:LB:g=original	!	!	!LO:LB:g=original	!	!	!	!	!	!	!	!	!	!	!	!	!
=20	=20	=20	=20	=20	=20	=20	=20	=20	=20	=20	=20	=20	=20	=20	=20	=20
8c\L	6_	.	16cc\LL	.	16ee\LL	.	1r	.	.	.	16cc\LL	Su-	16ee\LL	Su-	1r	1r
.	.	.	16b\	.	16dd\	.	.	.	.	.	16b\JJ	.	16dd\JJ	.	.	.
!	!	!	!	!	!	!	!	!	!	!	!	!	!	!LO:MO:mod=-ae	!	!
8c\	.	.	16cc\	.	16ee\	.	.	.	.	.	16cc\LL	-ae	16ee\LL	-e	.	.
.	.	.	16a\JJ	.	16cc\JJ	.	.	.	.	.	16a\JJ	.	16cc\JJ	.	.	.
8d\	4	.	8g/L	.	8b/L	.	.	.	.	.	8g\L	re-	8b\L	re-	.	.
8D\J	#	.	8f#X/J	.	8a/J	.	.	.	.	.	8f#X\J	.	8a\J	.	.	.
4G\	.	.	8g/L	.	8b\L	.	.	.	.	.	4g\	-ges	4b\	-ges	.	.
.	.	.	16a/L	.	16cc\L	.	.	.	.	.	.	.	.	.	.	.
.	.	.	16b/JJ	.	16dd\JJ	.	.	.	.	.	.	.	.	.	.	.
!	!	!	!LO:MO:mod=(16bLL	!	!	!	!	!	!	!	!	!	!	!	!	!
4r	.	.	16b/LL	.	(16dd\LL	.	.	.	.	.	4r	.	4r	.	.	.
.	.	.	16cc/	.	16ee\	.	.	.	.	.	.	.	.	.	.	.
.	.	.	16cc/	.	16ee\	.	.	.	.	.	.	.	.	.	.	.
!	!	!	!LO:MO:mod=16aJJ)	!	!	!	!	!	!	!	!	!	!	!	!	!
.	.	.	16a/JJ	.	16ff#X\JJ)	.	.	.	.	.	.	.	.	.	.	.
!	!	!	!	!	!	!	!	!	!LO:LB:g=original	!	!	!	!	!	!	!
=21	=21	=21	=21	=21	=21	=21	=21	=21	=21	=21	=21	=21	=21	=21	=21	=21
*tremolo	*	*	*	*	*	*	*	*	*	*	*	*	*	*	*	*
!	!	!	!	!	!	!LO:MO:null:mod=!LO&colon;DY&colon;ed=brack	!	!	!	!	!	!	!	!	!	!
!	!	!	!	!	!	!	!LO:MO:null:mod=!LO&colon;TX&colon;a&colon;i&colon;t=Tutti	!	!LO:MO:null:mod=!LO&colon;TX&colon;a&colon;i&colon;t=Tutti	!	!LO:MO:null:mod=!LO&colon;TX&colon;a&colon;i&colon;t=Tutti	!	!LO:MO:null:mod=!LO&colon;TX&colon;a&colon;i&colon;t=Tutti	!	!	!
!LO:TX:a:i:t=Tutti	!	!	!	!LO:DY:a:t=f.	!	!LO:MO:null:mod=f	!	!	!	!	!	!	!LO:TX:a:t=Tuti	!	!	!
8G\L	.	.	16g/LL	f	8gg\L	.	4G\	Ju-	4d\	Ju-	4b\	Ju-	4dd\	Ju-	4g/	4dd\
.	.	.	16b/	.	.	.	.	.	.	.	.	.	.	.	.	.
8G\	.	.	16g/	.	16b\L	.	.	.	.	.	.	.	.	.	.	.
.	.	.	16b/JJ	.	16cc\JJ	.	.	.	.	.	.	.	.	.	.	.
8G\	.	.	16g/LL	.	8dd\L	.	4G\	-di-	4d\	-di-	4b\	-di-	4dd\	-di-	4r	4r
.	.	.	16b/	.	.	.	.	.	.	.	.	.	.	.	.	.
8G\J	.	.	16g/	.	8dd\J	.	.	.	.	.	.	.	.	.	.	.
.	.	.	16b/JJ	.	.	.	.	.	.	.	.	.	.	.	.	.
!	!	!	!	!	!	!	!	!	!	!	!	!	!LO:LB:g=original	!	!	!
8G#X\L	6 5	.	16e/LL	.	8.dd\L	.	4G#X\	-ca-	4d\	-ca-	4b\	-ca-	4dd\	-ca-	4e/	4ee\
.	.	.	16b/	.	.	.	.	.	.	.	.	.	.	.	.	.
8G#\	.	.	16e/	.	.	.	.	.	.	.	.	.	.	.	.	.
.	.	.	16b/JJ	.	32cc\LL	.	.	.	.	.	.	.	.	.	.	.
.	.	.	.	.	32dd\JJJ	.	.	.	.	.	.	.	.	.	.	.
!	!	!	!	!	!	!	!LO:LB:g=original	!	!	!	!	!	!	!	!	!
8G#\	.	.	16e/LL	.	8ee\L	.	8G#\	-bit	8e\	-bit	8b\	-bit	8ee\	-bit	4r	4r
.	.	.	16b/	.	.	.	.	.	.	.	.	.	.	.	.	.
8G#\J	.	.	16e/	.	8dd\J	.	16G#\	in-	8e\	in	8b\	in	8dd\	in	.	.
.	.	.	16b/JJ	.	.	.	16G#\	.	.	.	.	.	.	.	.	.
!	!	!	!	!	!	!	!	!	!	!	!LO:LB:g=original	!	!	!	!	!
=22	=22	=22	=22	=22	=22	=22	=22	=22	=22	=22	=22	=22	=22	=22	=22	=22
8A\L	.	.	8.cc\L	.	16cc\LL	.	4.A\	-na-	4e\	na-	4a\	na-	4cc\	na-	4e/	4ee\
.	.	.	.	.	16ee\	.	.	.	.	.	.	.	.	.	.	.
8A\	.	.	.	.	16aa\	.	.	.	.	.	.	.	.	.	.	.
.	.	.	16ee\Jk	.	16gg#X\JJ	.	.	.	.	.	.	.	.	.	.	.
!	!	!	!	!	!LO:LB:g=original	!	!	!	!	!	!	!	!	!	!	!
8A\	.	.	16dd\LL	.	16ff\LL	.	.	.	4e\	-ti-	4a\	-ti-	4cc\	-ti-	4e/	4ee\
.	.	.	16cc\	.	16ee\	.	.	.	.	.	.	.	.	.	.	.
8A\J	.	.	16b\	.	16dd\	.	8A\	-ti-	.	.	.	.	.	.	.	.
.	.	.	16a\JJ	.	16cc\JJ	.	.	.	.	.	.	.	.	.	.	.
8E\L	4	.	8.a/L	.	(8.cc\L	.	8.E\	-o-	8.e\	-o-	8.a\	-o-	8.cc\	-o-	2e/	2ee\
8E\	.	.	.	.	.	.	.	.	.	.	.	.	.	.	.	.
.	.	.	(32b/LL	.	32dd\LL	.	16E\	-ni-	16e\	-ni-	16a\	-ni-	16cc\	-ni-	.	.
.	.	.	32a/JJJ)	.	32cc\JJJ)	.	.	.	.	.	.	.	.	.	.	.
8E\	#	.	8g#X|/L	.	(16b\LL	.	8E\	-bus	8e\	-bus	8g#X\	-bus	8b\	-bus	.	.
.	.	.	.	.	16cc\)	.	.	.	.	.	.	.	.	.	.	.
8E\J	.	.	8g#|/J	.	(16dd\	.	8E\	im-	8e\	im-	8g#\	im-	8b\	im-	.	.
.	.	.	.	.	16ee\JJ)	.	.	.	.	.	.	.	.	.	.	.
!	!	!	!	!	!	!	!	!	!	!	!	!	!	!	!LO:LB:g=original	!LO:LB:g=original
=23	=23	=23	=23	=23	=23	=23	=23	=23	=23	=23	=23	=23	=23	=23	=23	=23
8E\L	4	.	(8.a/L	.	(8.cc\L	.	4E\	-ple-	4e\	-ple-	4a\	-ple-	4cc\	-ple-	2e/	2ee\
8E\	.	.	.	.	.	.	.	.	.	.	.	.	.	.	.	.
.	.	.	32b/LL	.	32dd\LL	.	.	.	.	.	.	.	.	.	.	.
.	.	.	32a/JJJ)	.	32cc\JJJ)	.	.	.	.	.	.	.	.	.	.	.
!	!	!	!LO:LB:g=original	!	!	!	!	!	!	!	!	!	!	!	!	!
8E\	#	.	8g#X|/L	.	(16b\LL	.	8E\	-bit	8e\	-bit	8g#X\	-vit	8b\	-bit	.	.
.	.	.	.	.	16cc\)	.	.	.	.	.	.	.	.	.	.	.
*	*	*	*	*	*	*	*	*	*	*ij	*	*	*	*	*	*
8E\J	.	.	8g#|/J	.	(16dd\	.	8E\	ru-	8e\	im-	8g#\	ru-	8b\	im-	.	.
.	.	.	.	.	16ee\JJ)	.	.	.	.	.	.	.	.	.	.	.
8A\L	.	.	16b/LL	.	16dd\LL	.	4A\	-i-	4e\	-ple-	4a\	-i-	4cc\	-ple-	2e/	2ee\
.	.	.	16a/	.	16cc\	.	.	.	.	.	.	.	.	.	.	.
8A\	.	.	16g#/	.	16b\	.	.	.	.	.	.	.	.	.	.	.
.	.	.	16a/JJ	.	16cc\JJ	.	.	.	.	.	.	.	.	.	.	.
8A\	.	.	8cc\L	.	16a\LL	.	8A\	-nas	8e\	-bit	8a\	-nas	8cc\	-bit	.	.
*	*	*	*	*	*	*	*	*	*	*Xij	*	*	*	*	*	*
.	.	.	.	.	16cc\	.	.	.	.	.	.	.	.	.	.	.
*	*	*	*	*	*	*	*	*ij	*	*	*	*	*	*	*	*
8A\J	.	.	8cc\J	.	16ee\	.	8A\	ru-	8e\	ru-	8a\	ru-	8cc\	ru-	.	.
.	.	.	.	.	16aa\JJ	.	.	.	.	.	.	.	.	.	.	.
*Xtremolo	*	*	*	*	*	*	*	*	*	*	*	*	*	*	*	*
=24	=24	=24	=24	=24	=24	=24	=24	=24	=24	=24	=24	=24	=24	=24	=24	=24
8E\L	.	.	8b\L	.	8gg#X\L	.	8E\	-i-	8e\	-i-	8g#X\	-i-	8b\	-i-	2e/	2ee\
8E\	.	.	16b\L	.	16gg#\L	.	8E\	-nas	8e\	-nas	8g#\	-nas	8b\	-nas	.	.
*	*	*	*	*	*	*	*	*Xij	*	*	*	*	*	*	*	*
.	.	.	16a\JJ	.	16ff\JJ	.	.	.	.	.	.	.	.	.	.	.
!	!	!	!	!	!	!	!	!	!LO:LB:g=original	!	!	!	!	!	!	!
8e\	#	.	8b\L	.	16gg#\LL	.	8e\	Con-	8e\	Con-	8g#\	Con-	8b\	Con-	.	.
.	.	.	.	.	16bb\	.	.	.	.	.	.	.	.	.	.	.
8d\J	.	.	8b\J	.	16ee\	.	8d\	-qua-	8e\	-qua-	8g#\	-qua-	8b\	-qua-	.	.
.	.	.	.	.	16gg#\JJ	.	.	.	.	.	.	.	.	.	.	.
*	*	*	*tremolo	*	*	*	*	*	*	*	*	*	*	*	*	*
8c\L	6	.	8cc\L	.	16gg#X\LL	.	8c\	-sa-	8e\	-ſa-	8a\	-ſa-	8cc\	-ſa-	2e/	2ee\
.	.	.	.	.	16aa\J	.	.	.	.	.	.	.	.	.	.	.
8c\	.	.	8cc\	.	(8.aa\J	.	8c\	-bit	8e\	-bit	8a\	-bit	8cc\	-bit	.	.
!	!	!	!	!	!	!	!	!	!	!	!	!	!LO:LB:g=original	!	!	!
8A\	.	.	8cc\	.	.	.	8A\	Ca-	8e\	Ca-	8a\	Ca-	8cc\	Ca-	.	.
.	.	.	.	.	16gg#\LL)	.	.	.	.	.	.	.	.	.	.	.
8A\J	.	.	8cc\J	.	(16ff\	.	8A\	-pi-	8e\	-pi-	8a\	-pi-	8cc\	-pi-	.	.
.	.	.	.	.	16ee\JJ)	.	.	.	.	.	.	.	.	.	.	.
*	*	*	*Xtremolo	*	*	*	*	*	*	*	*	*	*	*	*	*
!LO:LB:g=original	!	!	!	!	!	!	!LO:LB:g=original	!	!	!	!LO:LB:g=original	!	!	!	!	!
=25	=25	=25	=25	=25	=25	=25	=25	=25	=25	=25	=25	=25	=25	=25	=25	=25
!LO:TX:t=P:problem=mixed beam	!	!	!LO:TX:t=P:problem=mixed beam	!	!	!	!	!	!	!	!	!	!	!	!	!
8G#X\L	6 5	.	8b\L	.	16ee\LL	.	8G#X\	-ta	8e\	-ta	8b\	-ta	8dd\	-ta	4e/	4ee\
.	.	.	.	.	16dd\JJ	.	.	.	.	.	.	.	.	.	.	.
8E\	.	.	8b\	.	4dd\	.	8E\	in	8e\	in	8b\	in	8dd\	in	.	.
8A\	.	.	8e/	.	.	.	4B\	ter-	4e\	ter-	4a\	ter-	8dd\L	te-	8e/L	4ee\
8AA/J	.	.	8e/J	.	8cc\	.	.	.	.	.	.	.	8cc\J	.	8e/J	.
!LO:TX:t=P:problem=mixed beam	!	!	!LO:TX:t=P:problem=mixed beam	!	!LO:LB:g=original	!	!	!	!	!	!	!	!	!	!	!
8D\L	6	.	8f/L	.	16cc#X\LL	.	8d\	-ra	8f\	-ra	8b\	-ra	8dd\	-ra	4dd\	4ff\
.	.	.	.	.	16dd\	.	.	.	.	.	.	.	.	.	.	.
8D\	.	.	16dd\L	.	16ff\	.	8d\	mul-	8f\	mul-	8b\	mul-	16ff\LL	mul-	.	.
.	.	.	16b\JJ	.	16dd\JJ	.	.	.	.	.	.	.	16dd\JJ	.	.	.
!	!	!	!	!	!	!	!	!	!	!	!	!	!	!	!LO:TX:t=P:problem=mixed beam	!
8E\	4	.	16b/LL	.	16dd\LL	.	8e\L	-to-	4e\	-to-	8a\L	-to-	8cc\L	-to-	8ee\L	8ee\L
.	.	.	16a/	.	16ccn\	.	.	.	.	.	.	.	.	.	.	.
8EE/J	#	.	16a/	.	16cc\	.	8E\J	.	.	.	8g#X\J	.	8b\J	.	8e/J	8dd\J
.	.	.	16g#X/JJ	.	16b\JJ	.	.	.	.	.	.	.	.	.	.	.
=26	=26	=26	=26	=26	=26	=26	=26	=26	=26	=26	=26	=26	=26	=26	=26	=26
!LO:TX:a:i:rj:t=Solo	!	!	!LO:TX:t=P:problem=mixed beam	!	!	!	!	!	!	!	!	!	!	!	!	!
4AA/	.	.	8a/L	.	16cc\LL	.	4A\	-rum	4e\	-rum	4a\	-rum	4cc\	-rum	4e/	4ee\
.	.	.	.	.	(32b\L	.	.	.	.	.	.	.	.	.	.	.
.	.	.	.	.	32cc\JJJ)	.	.	.	.	.	.	.	.	.	.	.
.	.	.	16aa\L	.	16ccc|\LL	.	.	.	.	.	.	.	.	.	.	.
.	.	.	16gg#X\JJ	.	16bb|\JJ	.	.	.	.	.	.	.	.	.	.	.
8r	.	.	16ff\LL	.	16aa|\LL	.	4r	.	4r	.	4r	.	4r	.	8r	8r
.	.	.	16ee\	.	16gg#X|\	.	.	.	.	.	.	.	.	.	.	.
8A\	.	.	16dd\	.	16ff|\	.	.	.	.	.	.	.	.	.	8cc\	8ee\
.	.	.	16cc\JJ	.	16ee|\JJ	.	.	.	.	.	.	.	.	.	.	.
!LO:TX:t=P:problem=mixed beam	!	!	!	!	!	!	!	!	!	!	!	!	!	!	!	!
8D\L	6	.	16b\LL	.	16ee\LL	.	2r	.	2r	.	2r	.	2r	.	4dd\	4ff\
.	.	.	16a\	.	16dd\	.	.	.	.	.	.	.	.	.	.	.
8D\	.	.	16dd\	.	16ff\	.	.	.	.	.	.	.	.	.	.	.
.	.	.	16b\JJ	.	16dd\JJ	.	.	.	.	.	.	.	.	.	.	.
!	!	!	!LO:LB:g=original	!	!	!	!	!	!	!	!	!	!	!	!LO:TX:t=P:problem=mixed beam	!
!	!	!	!LO:MO:mod=(16bLL	!	!	!	!	!	!	!	!	!	!	!	!	!
8E\	4	.	16b/LL	.	(16dd\LL	.	.	.	.	.	.	.	.	.	8ee\L	8ee\L
!	!	!	!LO:MO:mod=16a)	!	!	!	!	!	!	!	!	!	!	!	!	!
.	.	.	16a/	.	16cc\)	.	.	.	.	.	.	.	.	.	.	.
!	!	!	!LO:MO:mod=(16a	!	!	!	!	!	!	!	!	!	!	!	!	!
8EE/J	#	.	16a/	.	(16cc\	.	.	.	.	.	.	.	.	.	8e/J	8ee\J
!	!	!	!LO:MO:mod=16g#JJ)	!	!	!	!	!	!	!	!	!	!	!	!	!
.	.	.	16g#X/JJ	.	16b\JJ)	.	.	.	.	.	.	.	.	.	.	.
=27	=27	=27	=27	=27	=27	=27	=27	=27	=27	=27	=27	=27	=27	=27	=27	=27
!	!	!	!	!	!	!	!	!	!LO:MO:null:mod=!LO&colon;TX&colon;a&colon;i&colon;t=Solo	!	!LO:MO:mod=!LO&colon;TX&colon;a&colon;i&colon;t=Solo	!	!	!	!	!
!	!	!LO:DY:b:t=p.	!	!LO:DY:b:t=p.	!	!LO:DY:b:rj:t=p.	!	!	!	!	!LO:TX:a:i:rj:t=Solo	!	!	!	!	!
8AA/L	.	p	4.a/	p	4.cc\	p	00r	.	4.e\	De-	4.cc\	De-	00r	.	4e/	4ee\
8AA/	.	.	.	.	.	.	.	.	.	.	.	.	.	.	.	.
8C/	.	.	.	.	.	.	.	.	.	.	.	.	.	.	4r	4r
8E/J	.	.	8b/	.	8dd\	.	.	.	8d\	-to-	8b\	-to-	.	.	.	.
!	!	!	!	!	!LO:MO:mod=(8ddL	!	!	!	!LO:LB:g=original	!	!	!	!	!	!	!
4A\	.	.	(8b/L	.	8dd\L	.	.	.	8d\L	-ren-	8b\L	-ren-	.	.	2r	2r
!	!	!	!	!	!LO:MO:mod=8cc)	!	!	!	!	!	!	!	!	!	!	!
.	.	.	8a/)	.	8cc\	.	.	.	8c\J	.	8a\J	.	.	.	.	.
4r	.	.	8a|/J	.	8cc\J	.	.	.	8c\	-te	8a\	-te	.	.	.	.
.	.	.	8r	.	8r	.	.	.	8e\	in	8cc\	in	.	.	.	.
=28	=28	=28	=28	=28	=28	=28	=28	=28	=28	=28	=28	=28	=28	=28	=28	=28
8r	.	.	8r	.	8r	.	.	.	4.d\	vi-	4.b\	vi-	.	.	00r	00r
8E\L	7 #	.	8g#X/L	.	8b\L	.	.	.	.	.	.	.	.	.	.	.
8G#X\	.	.	8e/	.	8b\	.	.	.	.	.	.	.	.	.	.	.
8A\J	.	.	8e/J	.	8cc\J	.	.	.	8c\	-a	8a\	-a	.	.	.	.
4E\	.	.	8a/L	.	8cc\L	.	.	.	8c\L	bi-	8a\L	bi-	.	.	.	.
.	.	.	8g#/	.	8b\	.	.	.	8B\J	.	8g#X\J	.	.	.	.	.
8EE/	.	.	8g#/	.	8b\J	.	.	.	8B\	-bet	8g#\	-bet	.	.	.	.
8r	.	.	8b/J	.	8r	.	.	.	8B\	pro-	8r	.	.	.	.	.
!LO:LB:g=original	!	!	!	!	!LO:LB:g=original	!	!	!	!	!	!LO:LB:g=original	!	!	!	!	!
=29	=29	=29	=29	=29	=29	=29	=29	=29	=29	=29	=29	=29	=29	=29	=29	=29
2E\	8	.	(8.ee\L	.	4r	.	.	.	8.e\L	-pte-	4r	.	.	.	.	.
.	.	.	16ff\Jk)	.	.	.	.	.	16f\Jk	.	.	.	.	.	.	.
.	#	.	8ee\L	.	8r	.	.	.	8e\	-re	8r	.	.	.	.	.
.	n7r	.	8dd\J	.	8gg#X\	.	.	.	8d\	a	8g#X\	pro-	.	.	.	.
2A\	8	.	4.cc#X\	.	8.aa\L	.	.	.	4.c#X\	ex-	8.a\L	-pte-	.	.	.	.
.	#	.	.	.	16bb\Jk	.	.	.	.	.	16b\Jk	.	.	.	.	.
.	.	.	.	.	8aa\L	.	.	.	.	.	8a\	-re	.	.	.	.
.	.	.	16b\LL	.	8ggn\J	.	.	.	16B\LL	-al-	8gn\	a	.	.	.	.
.	n7r	.	16cc#\JJ	.	.	.	.	.	16c#\JJ	.	.	.	.	.	.	.
=30	=30	=30	=30	=30	=30	=30	=30	=30	=30	=30	=30	=30	=30	=30	=30	=30
2D\	8	.	8.dd\L	.	4.ff#X\	.	.	.	8.d\L	-ta-	4.f#X\	ex-	.	.	.	.
.	#	.	16ee\Jk	.	.	.	.	.	16e\Jk	.	.	.	.	.	.	.
.	n7r	.	8dd\L	.	.	.	.	.	8d\L	.	.	.	.	.	.	.
.	.	.	8ccn\J	.	16ee\LL	.	.	.	8cn\J	.	16e\LL	-al-	.	.	.	.
.	.	.	.	.	16ff#\JJ	.	.	.	.	.	16f#\JJ	.	.	.	.	.
!	!	!	!	!	!	!	!	!	!LO:LB:g=original	!	!	!	!	!	!	!
2Gn\	8	.	4.b\	.	8.gg\L	.	.	.	4.B\	.	8.g\L	-ta-	.	.	.	.
.	#	.	.	.	16aa\Jk	.	.	.	.	.	16a\Jk	.	.	.	.	.
.	.	.	.	.	8gg\L	.	.	.	.	.	8g\L	.	.	.	.	.
.	n7r	.	16a\LL	.	8ffn\J	.	.	.	16A\LL	.	8fn\J	.	.	.	.	.
.	.	.	16b\JJ	.	.	.	.	.	16B\JJ	.	.	.	.	.	.	.
!	!	!	!LO:LB:g=original	!	!	!	!	!	!	!	!	!	!	!	!	!
=31	=31	=31	=31	=31	=31	=31	=31	=31	=31	=31	=31	=31	=31	=31	=31	=31
!LO:TX:t=P:problem=mixed beam	!	!	!	!	!	!	!	!	!	!	!	!	!	!	!	!
8C\L	.	.	16cc\LL	.	16ee\LL	.	0r	.	16c\LL	.	16e\LL	.	0r	.	.	.
.	.	.	16ee\J	.	16gg\J	.	.	.	16e\JJ	.	16g\JJ	.	.	.	.	.
8C\	.	.	8.ee\J	.	8.gg\J	.	.	.	8.e\	.	8.g\	.	.	.	.	.
8G\	.	.	.	.	.	.	.	.	.	.	.	.	.	.	.	.
!	!	!	!LO:MO:mod=(16ddLL	!	!	!	!	!	!	!	!	!	!	!	!	!
.	.	.	16dd\LL	.	(16ff\LL	.	.	.	16d\	.	16f\	.	.	.	.	.
8GG/J	.	.	16cc\	.	16ee\	.	.	.	16c\LL	.	16e\LL	.	.	.	.	.
!	!	!	!LO:MO:mod=16bJJ)	!	!	!	!	!	!	!	!	!	!	!	!	!
.	.	.	16b\JJ	.	16dd\JJ)	.	.	.	16B\JJ	.	16d\JJ	.	.	.	.	.
!LO:TX:t=P:problem=mixed beam	!	!	!	!	!	!	!	!	!	!	!	!	!	!	!	!
8C\L	.	.	16cc\LL	.	16ee\LL	.	.	.	16c\LL	.	16e\LL	.	.	.	.	.
.	.	.	16ee\J	.	16gg\J	.	.	.	16e\J	.	16g\J	.	.	.	.	.
8C\	.	.	8.ee\J	.	8.gg\J	.	.	.	8.e\J	.	8.g\J	.	.	.	.	.
8G\	.	.	.	.	.	.	.	.	.	.	.	.	.	.	.	.
!	!	!	!LO:MO:mod=(16ddLL	!	!	!	!	!	!	!	!	!	!	!	!	!
.	.	.	16dd\LL	.	(16ff\LL	.	.	.	16d\LL	.	16f\LL	.	.	.	.	.
8GG/J	.	.	16cc\	.	16ee\	.	.	.	16c\	.	16e\	.	.	.	.	.
!	!	!	!LO:MO:mod=16bJJ)	!	!	!	!	!	!	!	!	!	!	!	!	!
.	.	.	16b\JJ	.	16dd\JJ)	.	.	.	16B\JJ	.	16d\JJ	.	.	.	.	.
!	!	!	!	!	!	!	!	!	!	!	!LO:LB:g=original	!	!	!	!	!
=32	=32	=32	=32	=32	=32	=32	=32	=32	=32	=32	=32	=32	=32	=32	=32	=32
!LO:TX:t=P:problem=mixed beam	!	!	!	!	!	!	!	!	!	!	!	!	!	!	!	!
8C\L	.	.	16cc\LL	.	16ee\LL	.	.	.	16c\LL	.	16e\LL	.	.	.	2r	2r
.	.	.	16ee\	.	16gg\	.	.	.	16e\JJ	.	16g\JJ	.	.	.	.	.
8F\	6	.	16ff\	.	16aa\	.	.	.	16f\LL	-bit	16a\LL	-bit	.	.	.	.
.	.	.	16dd\JJ	.	16ff\JJ	.	.	.	16d\JJ	.	16f\JJ	.	.	.	.	.
8G\	4	.	8cc\L	.	8ee\L	.	.	.	8c\L	ca-	8e\L	ca-	.	.	.	.
8GG/J	3	.	8b\J	.	8dd\J	.	.	.	8B\J	.	8d\J	.	.	.	.	.
!	!	!	!	!	!	!LO:MO:null:mod=!LO&colon;DY&colon;ed=brack	!	!	!	!	!	!	!	!	!	!
!	!	!	!	!	!	!	!	!	!	!	!	!	!	!	!	!
!	!	!	!	!LO:DY:b:rj:t=f.	!	!LO:MO:null:mod=f	!	!	!	!	!	!	!	!	!	!
4C/	.	.	16cc\LL	f	16ee\LL	.	.	.	4c\	-put	4e\	-put	.	.	4r	4r
.	.	.	16b\	.	16dd\	.	.	.	.	.	.	.	.	.	.	.
.	.	.	16cc\	.	16ee\	.	.	.	.	.	.	.	.	.	.	.
.	.	.	16dd\JJ	.	16ff\JJ	.	.	.	.	.	.	.	.	.	.	.
8r	.	.	8ee\L	.	(16gg\LL	.	.	.	4r	.	4r	.	.	.	8r	8r
.	.	.	.	.	16ee\)	.	.	.	.	.	.	.	.	.	.	.
8C/	.	.	8ee\J	.	(16aa\	.	.	.	.	.	.	.	.	.	8e/	8cc\
.	.	.	.	.	16gg\JJ)	.	.	.	.	.	.	.	.	.	.	.
!	!	!	!	!	!LO:LB:g=original	!	!	!	!	!	!	!	!	!	!	!LO:LB:g=original
=33	=33	=33	=33	=33	=33	=33	=33	=33	=33	=33	=33	=33	=33	=33	=33	=33
4BB/	6 5	.	8.dd\L	.	8.gg\L	.	1r	.	1r	.	1r	.	1r	.	4g/	4dd\
.	.	.	(32ee\LL	.	16ff\Jk	.	.	.	.	.	.	.	.	.	.	.
.	.	.	32dd\JJJ)	.	.	.	.	.	.	.	.	.	.	.	.	.
.	.	.	.	.	16qqff/	.	.	.	.	.	.	.	.	.	.	.
8C\L	.	.	8cc/L	.	8ee\L	.	.	.	.	.	.	.	.	.	4cc\	4ee\
8E\J	6	.	8g/J	.	16dd\L	.	.	.	.	.	.	.	.	.	.	.
.	.	.	.	.	16cc\JJ	.	.	.	.	.	.	.	.	.	.	.
!LO:LB:g=original	!	!	!	!	!	!	!	!	!	!	!	!	!	!	!	!
!LO:TX:t=P:problem=mixed beam	!	!	!	!	!	!	!	!	!	!	!	!	!	!	!LO:LB:g=original	!
8F\L	6	.	8.a/L	.	16cc#X\LL	.	.	.	.	.	.	.	.	.	4dd\	4ff\
.	.	.	.	.	16dd\	.	.	.	.	.	.	.	.	.	.	.
8F\	.	.	.	.	16ff\	.	.	.	.	.	.	.	.	.	.	.
.	.	.	16f/Jk	.	16dd\JJ	.	.	.	.	.	.	.	.	.	.	.
!	!	!	!	!	!LO:MO:mod=(16ddLL	!	!	!	!	!	!	!	!	!	!	!
8G\	4	.	(16f/LL	.	16dd\LL	.	.	.	.	.	.	.	.	.	8cc\L	8ee\L
!	!	!	!	!	!LO:MO:mod=16ccn)	!	!	!	!	!	!	!	!	!	!	!
.	.	.	16e/)	.	16ccn\	.	.	.	.	.	.	.	.	.	.	.
!	!	!	!	!	!LO:MO:mod=(16cc	!	!	!	!	!	!	!	!	!	!	!
8GG/J	3	.	(16e/	.	16cc\	.	.	.	.	.	.	.	.	.	8g\J	8dd\J
!	!	!	!	!	!LO:MO:mod=16bJJ)	!	!	!	!	!	!	!	!	!	!	!
.	.	.	16d/JJ)	.	16b\JJ	.	.	.	.	.	.	.	.	.	.	.
!	!	!	!LO:LB:g=original	!	!	!	!	!	!	!	!	!	!	!	!	!
=34	=34	=34	=34	=34	=34	=34	=34	=34	=34	=34	=34	=34	=34	=34	=34	=34
!	!	!	!	!	!	!	!	!	!LO:MO:null:mod=!LO&colon;TX&colon;a&colon;i&colon;t=Tutti	!	!LO:MO:mod=!LO&colon;TX&colon;a&colon;i&colon;t=Tutti	!	!	!	!	!
!	!	!	!	!	!	!	!LO:MO:null:mod=!LO&colon;TX&colon;a&colon;i&colon;t=Tutti	!	!	!	!	!	!LO:MO:null:mod=!LO&colon;TX&colon;a&colon;i&colon;t=Tutti	!	!	!
!LO:TX:a:t=Tutti	!	!	!	!LO:DY:a:t=f.	!	!LO:DY:a:rj:t=f.	!	!	!	!	!LO:TX:a:i:rj:t=Tutti	!	!	!	!	!
4C/	.	.	4e/	f	4cc 4e/	f	8r	.	8r	.	8r	.	8r	.	4e/	4cc\
!	!	!	!	!	!	!	!	!LO:MO:mod=Glo-	!	!	!	!	!	!	!	!
.	.	.	.	.	.	.	8c\	glo-	8c\	Glo-	8cc\	Glo-	8cc\	Glo-	.	.
4r	.	.	4r	.	4r	.	8c\	-ri-	8c\	-ri-	8cc\	-ri-	8cc\	-ri-	4r	4r
.	.	.	.	.	.	.	8c\	-a	8c\	-a	8cc\	-a	8cc\	-a	.	.
!	!	!	!	!	!	!	!	!	!LO:LB:g=original	!	!	!	!	!	!	!
8r	.	.	8r	.	8r	.	2c\	Pa-	2c\	pa-	2cc\	Pa-	2cc\	Pa-	2r	2r
16C/LL	.	.	16e/LL	.	16e/LL	.	.	.	.	.	.	.	.	.	.	.
16D/JJ	.	.	16f/JJ	.	16f/JJ	.	.	.	.	.	.	.	.	.	.	.
16E\LL	.	.	16g/LL	.	16g/LL	.	.	.	.	.	.	.	.	.	.	.
16F\	.	.	16a/	.	16a/	.	.	.	.	.	.	.	.	.	.	.
16E\	.	.	16g/	.	16g/	.	.	.	.	.	.	.	.	.	.	.
16D\JJ	.	.	16f/JJ	.	16f/JJ	.	.	.	.	.	.	.	.	.	.	.
=35	=35	=35	=35	=35	=35	=35	=35	=35	=35	=35	=35	=35	=35	=35	=35	=35
4C/	.	.	4e/	.	4e/	.	8c\	-tri	8c\	-tri	8cc\	-tri	8cc\	-tri	0r	0r
!	!	!	!	!	!	!	!	!LO:MO:mod=Glo-	!	!LO:MO:mod=Glo-	!	!	!	!	!	!
.	.	.	.	.	.	.	8c\	et	8c\	glo-	8cc\	Glo-	8cc\	Glo-	.	.
!	!	!	!	!	!	!	!	!LO:MO:mod=-ri	!	!	!	!	!LO:LB:g=original	!	!	!
4r	.	.	4r	.	4r	.	8c\	fi-	8c\	-ri-	8cc\	-ri-	8cc\	-ri-	.	.
!	!	!	!	!	!	!	!	!LO:MO:mod=-a	!	!	!	!	!	!	!	!
.	.	.	.	.	.	.	8c\	-li-	8c\	-a	8cc\	-a	8cc\	-a	.	.
!	!	!	!	!	!	!	!LO:LB:g=original	!	!	!	!	!LO:MO:mod=fi-	!	!	!	!
!	!	!	!	!	!	!	!	!LO:MO:mod=fi-	!	!	!	!	!	!	!	!
8r	.	.	8r	.	8r	.	4.c\	-o	4.c\	fi-	4.cc\	Fi-	4.cc\	fi-	.	.
16C/LL	.	.	16e/LL	.	16e/LL	.	.	.	.	.	.	.	.	.	.	.
16D/JJ	.	.	16f/JJ	.	16f/JJ	.	.	.	.	.	.	.	.	.	.	.
16E\LL	.	.	16g/LL	.	16g/LL	.	.	.	.	.	.	.	.	.	.	.
16F\	.	.	16a/	.	16a/	.	.	.	.	.	.	.	.	.	.	.
!	!	!	!	!	!	!	!	!LO:MO:mod=-li-	!	!	!	!	!	!	!	!
16E\	.	.	16g/	.	16g/	.	8c\	glo-	8c\	-li-	8cc\	-li-	8cc\	-li-	.	.
16D\JJ	.	.	16f/JJ	.	16f/JJ	.	.	.	.	.	.	.	.	.	.	.
=36	=36	=36	=36	=36	=36	=36	=36	=36	=36	=36	=36	=36	=36	=36	=36	=36
!	!	!	!	!	!	!	!	!LO:MO:mod=-o	!	!	!	!	!	!	!	!
4C/	.	.	4e/	.	4e/	.	8c\	-ri-	8c\	-o	8cc\	-o	8cc\	-o	.	.
!	!	!	!	!	!	!	!	!LO:MO:mod=et	!	!	!	!	!	!	!	!
.	.	.	.	.	.	.	8c\	-a	8c\	et	8cc\	et	8cc\	aet	.	.
!	!	!	!	!	!	!	!	!LO:MO:mod=Spi-	!	!LO:MO:mod=Spi-	!	!	!	!	!	!
4r	.	.	4r	.	4r	.	8B\	pa-	8B\	spi-	8b\	Spi-	8b\	Spi-	.	.
!	!	!	!	!	!	!	!	!LO:MO:mod=-ri-	!	!	!	!	!	!	!	!
.	.	.	.	.	.	.	8A\	-tri	8A\	-ri-	8a\	-ri-	8a\	-ri-	.	.
!	!	!	!	!	!	!	!	!LO:MO:mod=-tu-	!	!	!	!	!	!	!	!
2r	.	.	2r	.	2r	.	8G\	et	8G/	-tu-	8g\	-tu-	8g\	-tu-	.	.
!	!	!	!	!	!	!	!	!LO:MO:mod=-i	!	!	!LO:LB:g=original	!	!	!	!	!
.	.	.	.	.	.	.	16F\LL	fi-	8G/	-i	16f\LL	-i	8cc\	-i	.	.
.	.	.	.	.	.	.	16E\JJ	.	.	.	16e\JJ	.	.	.	.	.
!	!	!	!	!	!	!	!	!LO:MO:mod=Sanc-	!	!LO:MO:mod=Sanc-	!	!	!	!	!	!
.	.	.	.	.	.	.	8F\L	-li-	8A/L	San-	4d\	Sanc-	8cc\L	Sanc-	.	.
.	.	.	.	.	.	.	8G\J	.	8G/J	.	.	.	8b\J	.	.	.
=37	=37	=37	=37	=37	=37	=37	=37	=37	=37	=37	=37	=37	=37	=37	=37	=37
!	!	!	!	!	!	!LO:MO:null:mod=!LO&colon;DY&colon;ed=brack	!	!	!	!	!	!	!	!	!	!
!	!	!	!	!	!	!	!	!	!	!	!	!	!	!	!	!
!	!	!	!	!LO:DY:a:t=f.	!	!LO:MO:null:mod=f	!	!LO:MO:mod=-to	!	!LO:MO:mod=-to	!	!	!	!	!	!
8c\L	.	.	16e/LL	f	(8.cc\L	.	8C/	-o	8G/	-cto	8e\	-to	8cc\	-to	2e/	2cc\
.	.	.	16g/	.	.	.	.	.	.	.	.	.	.	.	.	.
8c\	.	.	16e/	.	.	.	16c\	Si-	16c\	Si-	16g\	Si-	16ee\	Si-	.	.
.	.	.	16g/JJ	.	16ee\Jk)	.	16c\	-cut	16c\	-cut	16g\	-cut	16ee\	-cut	.	.
!	!	!	!	!	!	!	!	!	!LO:LB:g=original	!	!	!	!	!	!	!
8c\	.	.	16e/LL	.	8gg|\L	.	8c\	e-	8c\	e-	8g\	e-	8ee\	e-	.	.
.	.	.	16g/	.	.	.	.	.	.	.	.	.	.	.	.	.
8c\J	.	.	16e/	.	8gg|\J	.	8c\	-rat	8c\	-rat	8g\	-rat	8ee\	-rat	.	.
.	.	.	16g/JJ	.	.	.	.	.	.	.	.	.	.	.	.	.
!	!	!	!	!	!LO:LB:g=original	!	!	!	!	!	!	!	!	!	!	!
8B\L	6 5	.	16f/LL	.	(8.gg\L	.	8B\	in	8d\	in	8g\	in	8dd\	in	2g/	2dd\
.	.	.	16g/	.	.	.	.	.	.	.	.	.	.	.	.	.
8B\	.	.	16f/	.	.	.	8B\	prin-	8d\	prin-	8g\	prin-	8dd\	prin-	.	.
.	.	.	16g/JJ	.	16ff\Jk)	.	.	.	.	.	.	.	.	.	.	.
8B\	.	.	16d/LL	.	(16dd\LL	.	8B\	-ci-	8d\	-ci-	8g\	-ci-	8dd\	-ci-	.	.
.	.	.	16g/	.	16ee\)	.	.	.	.	.	.	.	.	.	.	.
8B\J	.	.	16d/	.	(16ff\	.	8B\	-pi-	8d\	-pi-	8g\	-pi-	8dd\	-pi-	.	.
.	.	.	16g/JJ	.	16gg\JJ)	.	.	.	.	.	.	.	.	.	.	.
!LO:LB:g=original	!	!	!	!	!	!	!LO:LB:g=original	!	!	!	!	!	!LO:LB:g=original	!	!	!
=38	=38	=38	=38	=38	=38	=38	=38	=38	=38	=38	=38	=38	=38	=38	=38	=38
8c\L	.	.	16e/LL	.	8ee\L|	.	8c\	-o	8c\	-o	8g\	-o	8ee\	-o	2e/	2cc\
.	.	.	16g/	.	.	.	.	.	.	.	.	.	.	.	.	.
8c\	.	.	16e/	.	(32cc\LL	.	8c\	et	8c\	et	8g\	et	8ee\	et	.	.
.	.	.	.	.	32dd\	.	.	.	.	.	.	.	.	.	.	.
.	.	.	16g/JJ	.	32ee\	.	.	.	.	.	.	.	.	.	.	.
.	.	.	.	.	32ff\JJJ)	.	.	.	.	.	.	.	.	.	.	.
!	!	!	!LO:LB:g=original	!	!	!	!	!	!	!	!	!	!	!	!	!
8c\	.	.	16e/LL	.	8gg|\L	.	8c\	nunc	8c\	nunc	8g\	nunc	8ee\	nunc	.	.
.	.	.	16g/	.	.	.	.	.	.	.	.	.	.	.	.	.
8c\J	.	.	16e/	.	8gg|\J	.	8c\	et	8c\	et	8g\	et	8ee\	et	.	.
.	.	.	16g/JJ	.	.	.	.	.	.	.	.	.	.	.	.	.
!	!	!	!	!	!	!	!	!	!	!	!	!	!	!LO:MO:mod=Sem-	!	!
8B\L	6 5	.	16f/LL	.	(8.gg\L	.	8B\	Sem-	8d\	Sem-	8g\	Sem-	8dd\	sem-	2g/	2dd\
.	.	.	16g/	.	.	.	.	.	.	.	.	.	.	.	.	.
8B\	.	.	16f/	.	.	.	8B\	-per	8d\	-per	8g\	-per	8dd\	-per	.	.
.	.	.	16g/JJ	.	16ff\Jk)	.	.	.	.	.	.	.	.	.	.	.
8B\	.	.	16d/LL	.	(16dd\LL	.	8B\	et	8d\	et	8g\	et	8dd\	et	.	.
.	.	.	16g/	.	16ee\)	.	.	.	.	.	.	.	.	.	.	.
8B\J	.	.	16d/	.	(16ff\	.	8B\	in	8d\	in	8g\	in	8dd\	in	.	.
.	.	.	16g/JJ	.	16gg\JJ)	.	.	.	.	.	.	.	.	.	.	.
=39	=39	=39	=39	=39	=39	=39	=39	=39	=39	=39	=39	=39	=39	=39	=39	=39
8c\L	.	.	16e/LL	.	8.ee\L	.	4c\	Se-	4c\	Se-	4g\	Se-	4ee\	Se-	2cc\	2ee\
.	.	.	16g/	.	.	.	.	.	.	.	.	.	.	.	.	.
8c\	.	.	16e/	.	.	.	.	.	.	.	.	.	.	.	.	.
.	.	.	16g/JJ	.	32cc\LL	.	.	.	.	.	.	.	.	.	.	.
.	.	.	.	.	32dd\JJJ	.	.	.	.	.	.	.	.	.	.	.
8c\	.	.	16e/LL	.	8ee\L	.	8c\	-cu-	8c\	-cu-	8g\	-cu-	8ee\	-cu-	.	.
.	.	.	16g/	.	.	.	.	.	.	.	.	.	.	.	.	.
8c\J	.	.	16e/	.	8ee\J	.	8c\	-la	8c\	-la	8g\	-la	8ee\	-la	.	.
!	!	!	!	!	!	!	!	!	!	!	!LO:TX:b:i:t=Verte:mod=	!	!	!	!	!
.	.	.	16g/JJ	.	.	.	.	.	.	.	.	.	.	.	.	.
!	!	!	!	!	!	!	!	!	!LO:LB:g=original	!	!LO:PB:g=original	!	!	!	!	!
8A\L	.	.	16e/LL	.	8.ee\L	.	4A\	Se-	4c\	Se-	4a\	Se-	4ee\	Se-	2cc\	2ee\
.	.	.	16cc/	.	.	.	.	.	.	.	.	.	.	.	.	.
8A\	.	.	16e/	.	.	.	.	.	.	.	.	.	.	.	.	.
.	.	.	16cc/JJ	.	(32cc\LL	.	.	.	.	.	.	.	.	.	.	.
.	.	.	.	.	32dd\JJJ)	.	.	.	.	.	.	.	.	.	.	.
8A\	.	.	16e/LL	.	8ee\L	.	4A\	-cu-	4c\	-cu-	4a\	-cu-	4ee\	-cu-	.	.
.	.	.	16cc/	.	.	.	.	.	.	.	.	.	.	.	.	.
8A\J	.	.	16e/	.	8ee\J	.	.	.	.	.	.	.	.	.	.	.
.	.	.	16cc/JJ	.	.	.	.	.	.	.	.	.	.	.	.	.
=40	=40	=40	=40	=40	=40	=40	=40	=40	=40	=40	=40	=40	=40	=40	=40	=40
8F#X\L	6 5	.	16a\LL	.	8.dd\L	.	4F#X\	-lo-	4c\	-lo-	4a\	-lo-	4dd\	-lo-	4cc\	2dd\
.	.	.	16cc\	.	.	.	.	.	.	.	.	.	.	.	.	.
8F#\	.	.	16a\	.	.	.	.	.	.	.	.	.	.	.	.	.
.	.	.	16cc\JJ	.	(32ff\LL	.	.	.	.	.	.	.	.	.	.	.
.	.	.	.	.	32ee\JJJ)	.	.	.	.	.	.	.	.	.	.	.
8F#\	.	.	16a\LL	.	8dd|\L	.	4F#\	-rum	4c\	-rum	4a\	-rum	4dd\	-rum	4cc\	.
.	.	.	16cc\	.	.	.	.	.	.	.	.	.	.	.	.	.
8F#\J	.	.	16a\	.	8dd|\J	.	.	.	.	.	.	.	.	.	.	.
.	.	.	16cc\JJ	.	.	.	.	.	.	.	.	.	.	.	.	.
8G\L	3	.	16b\LL	.	8.dd\L	.	2G\	a-	2B\	a-	2g\	a-	2dd\	a-	4g/	4dd\
.	.	.	16g\	.	.	.	.	.	.	.	.	.	.	.	.	.
8G\	.	.	16b\	.	.	.	.	.	.	.	.	.	.	.	.	.
.	.	.	16dd\JJ	.	(32ee\LL	.	.	.	.	.	.	.	.	.	.	.
.	.	.	.	.	32ff\JJJ)	.	.	.	.	.	.	.	.	.	.	.
!	!	!	!	!	!LO:LB:g=original	!	!	!	!	!	!	!	!	!	!	!
8G\	.	.	8.b\L	.	16gg\LL	.	.	.	.	.	.	.	.	.	4g/	4dd\
.	.	.	.	.	16ff\	.	.	.	.	.	.	.	.	.	.	.
8G\J	.	.	.	.	16ee\	.	.	.	.	.	.	.	.	.	.	.
.	.	.	(32a\LL	.	16dd\JJ	.	.	.	.	.	.	.	.	.	.	.
.	.	.	32b\JJJ)	.	.	.	.	.	.	.	.	.	.	.	.	.
!	!	!	!LO:LB:g=original	!	!	!	!LO:LB:g=original	!	!	!	!	!	!	!	!	!
=41	=41	=41	=41	=41	=41	=41	=41	=41	=41	=41	=41	=41	=41	=41	=41	=41
!	!	!	!	!	!	!	!	!	!	!	!	!LO:MO:mod=-men	!	!	!	!
8c\L	.	.	8cc\L	.	8ee\L	.	8c\	-men	8c\	-men	8g\	-me(n)	8ee\	-men	8e/	8cc\L
8A\	.	.	8ccc 8ee\	.	8ccc 8ee\	.	8A\L	a-	4c\	a-	4a\	a-	8ee\	a-	4cc\	8ee\J
8Fn\	6 5	.	8ccc 8ee\	.	8ccc 8ee\	.	8Fn\	.	.	.	.	.	4dd\	.	.	4dd\
8G\J	.	.	8bbJ 8dd\	.	8bbJ 8dd\	.	8G\J	.	8B\	.	8g\	.	.	.	8g/	.
4C/	.	.	4ccc 4ee\	.	4ccc 4ee\	.	4C/	-men	4c\	-men	4g\	-men	4ee\	-men	4e/	4cc\
!	!	!	!	!	!	!	!	!	!LO:TX:b:i:t=Verte\nLaudat:mod=	!	!	!	!LO:TX:b:i:t=Verte Conſi&colon;:mod=	!	!	!
4r	.	.	4r	.	4r	.	4r	.	4r	.	4r	.	4r	.	4r	4r
==	==	==	==	==	==	==	==	==	==	==	==	==	==	==	==	==
*-	*-	*-	*-	*-	*-	*-	*-	*-	*-	*-	*-	*-	*-	*-	*-	*-
!!!system-decoration: [(g1)][(g2)][(g3)]s9
!!!RDF**kern: | = vertical stroke
!!!filter-modern: | autostem -r| humtr -p | tie -s | shed -e "s/LO:DY:t=/LO:dy:t=/L" | shed -e "s/TX(.*):t=P:/tx$1:t=P:/LG" | shed -e "s/^(\d+[\/\\]right)/$1yy/I; s/^(\d+[\/\\]left)/$1yy/I" |  shed -e "s/LO:DY:(a|b|rj)/LO:dy:$1/L" | modori -m |
!!!ENC: Filip Voros
!!!END: 2021-12-03
!!!ENC: Marta Lawrence
!!!END: 2021-12-11
!!!ENC-modern: Leszek Kubiak
!!!END-modern: 2022-07-28
